X: 32035
T: Peggy Thought She'd Marry
R: barndance
M: 4/4
K: Dmajor
A>F A>d f2 f2|A>F Ad f2 f2|g>f e>d c2 d2|(3efe (3dcB (3ABA F2|
A>F A>d f2 f2|A>F Ad f2 f2|g>f e>d c2 d2|(3efe dc d3 B:|
d>c d>b a2 f2|d>c d>b a2 f2|g>fe>d c2 d2|(3efe (3dcB A2 A2|
d>c d>b a2 f2|d>c d>b a2 f2|g>f e>d c2 d2|(3efe d>c d2 d2:|

